X: 10261
T: PADDY CAREY
Q: "Lively"
%R: jig
B: "Edinburgh Repository of Music" v.1 p.26 #1
F: http://digital.nls.uk/special-collections-of-printed-music/pageturner.cfm?id=87776133
Z: 2015 John Chambers <jc:trillian.mit.edu>
M: 6/8
L: 1/8
K: C
|:\
G2c cBc | e2c cBc | A2d d2e | f2d {c}B2G |\
G2c cBc | e2c cBc | BAG GAB | c3 c3 :|
|:\
c2e f2a | g2a ged | c2e f2a | gec d3 |\
c2e f2a | g2a gec | cBA GAB | c3- c3 :|

%%sep 2 1 500
%%sep 1 1 500

